X:07
T:Chatsworth House. ET.07
M:6/8
L:1/8
Q:1/4=110
S:Eliza Tennyson MS, Lincolnshire,1822
R:Quadrille
O:England;Lincolnshire;Somersby
Z:vmp.R.Greig 2011 <http://www.village-music-project.org.uk>
K:G
d|d^cd Bgf|age d2c|Bdg aBc|edBA2d|!
d^cd Bgf|age d2c|BgB BAc|ed”^bar line omitted in MS”FG2A|!
AFd dAF|GEe e^cA|AFa afd|e^cAd2:|!
d|dedc2B|A2Bc2a|abag2f|g2″^cr. in ms”ab2d|!
ded c2B|A2Bc2a|abag2f|g2″^cr. in ms”b g2|]

